Yaru++/mimetypes/48/application-x-archive.svg

<svg height="48" viewBox="0 0 12.699375 12.699376" width="48" xmlns="http://www.w3.org/2000/svg" xmlns:xlink="http://www.w3.org/1999/xlink"><linearGradient id="a" gradientUnits="userSpaceOnUse" x1="344" x2="344" y1="62" y2="106"><stop offset="0" stop-color="#fff"/><stop offset=".125" stop-color="#fff" stop-opacity=".098039"/><stop offset=".92500001" stop-color="#fff" stop-opacity=".098039"/><stop offset="1" stop-color="#fff" stop-opacity=".498039"/></linearGradient><clipPath id="b"><path d="m335.73108 62c-8.82418 0-9.77365.90635-9.7304 9.74838v12.25162 12.25162c-.0433 8.84203.90622 9.74838 9.7304 9.74838h16.53919c8.82418 0 9.7304-.90625 9.7304-9.74838v-12.25162-12.25162c0-8.84213-.90622-9.74838-9.7304-9.74838z"/></clipPath><linearGradient id="c" gradientTransform="matrix(0 -.02997086 .02997 0 -3.039332 13.567585)" gradientUnits="userSpaceOnUse" x1="459.03448" x2="35.310345" y1="419.23337" y2="207.36522"><stop offset="0" stop-color="#f2f2f2"/><stop offset="1" stop-color="#f9f9f9"/></linearGradient><path d="m4.1621983.39685638c-.5881821 0-1.0513178.0135407-1.4323996.0775109-.3810844.0639689-.6929229.1839555-.9213476.4118408-.2284221.22788542-.3489841.53958342-.4123567.92082872-.0633725.3812456-.0757438.8453924-.07286 1.4349839v3.239953 3.2415032c-.00286.5886861.00955 1.0525971.07286 1.4334331.063373.381246.1839346.692944.4123567.920829.2284247.227885.5402632.347873.9213476.411841.3810845.06397.8442175.07751 1.4323996.07751h4.3757445c.5881822 0 1.0510744-.01352 1.4313676-.07751.3802936-.064.6911796-.18439.9187596-.412357.227584-.227967.347434-.539443.411325-.920313.06389-.380867.07751-.844073.07751-1.4334331v-3.2415032-3.2415031c0-.5893606-.01362-1.0525645-.07751-1.4334338-.063891-.3808691-.183741-.6923443-.411325-.92031202-.22758-.2279676-.538466-.3483608-.9187596-.41235749-.3802932-.06399692-.8431854-.07751091-1.4313676-.07751091z" opacity=".1"/><path d="m4.1623597.39685638c-2.3346161 0-2.5858177.2397933-2.574375 2.57913202v3.241415 3.2414151c-.011456 2.3393385.2397589 2.5791325 2.574375 2.5791325h4.3757789c2.3346154 0 2.5743744-.239767 2.5743744-2.5791325v-3.2414151-3.241415c0-2.33936512-.239759-2.57913202-2.5743744-2.57913202z" fill="none" opacity=".2" stroke="#000" stroke-width=".529141"/><path d="m4.162537.33906999c-2.3346162 0-2.5858177.23979329-2.5743751 2.57913201v3.241415 3.2414151c-.0114559 2.3393379.2397589 2.5791309 2.5743751 2.5791309h4.3757788c2.3346162 0 2.5743742-.239767 2.5743742-2.5791309v-3.2414151-3.241415c0-2.33936512-.239758-2.57913201-2.5743742-2.57913201z" fill="url(#c)"/><path d="m5.8209299 5.9528323v1.7197068c0 .073286.058999.1322852.1322852.1322852h.793711c.073286 0 .1322851-.058999.1322851-.1322852v-1.7197068zm.2645703 1.058281h.5291407v.5291407h-.5291407z" fill="#888"/><path d="m6.3500679.39685638h-.5291406v.5291407h.5291406zm0 .5291407v.52914052h.5291407v-.52914052zm0 .52914052h-.5291406v.5291404h.5291406zm0 .5291404v.5291406h.5291407v-.5291406zm0 .5291406h-.5291406v.5291407h.5291406zm0 .5291407v.5291404h.5291407v-.5291404zm0 .5291404h-.5291406v.5291406h.5291406zm0 .5291406v.5291407h.5291407v-.5291407zm0 .5291407h-.5291406v.5291403h.5291406zm0 .5291403v.5291407h.5291407v-.5291407z" fill="#888"/><path d="m1.5878047 6.2174034v3.2415032c-.011456 2.3393384.2397775 2.5790444 2.5743936 2.5790444h4.3757445c2.3346152 0 2.5743932-.23968 2.5743932-2.5790444v-3.2415032z" fill="#fff" opacity=".2"/><path d="m6.3500706.39685638v11.64109462h2.1878722c2.3346152 0 2.5743932-.23968 2.5743932-2.5790444v-3.2415032-3.2415031c0-2.33936512-.239778-2.57904392-2.5743932-2.57904392z" fill="#fff" opacity=".1"/><path clip-path="url(#b)" d="m335.73108 62c-8.82418 0-9.77365.90635-9.7304 9.74838v12.25162 12.25162c-.0433 8.84203.90622 9.74838 9.7304 9.74838h16.53919c8.82418 0 9.7304-.90625 9.7304-9.74838v-12.25162-12.25162c0-8.84213-.90622-9.74838-9.7304-9.74838z" fill="none" opacity=".4" stroke="url(#a)" stroke-width="2" transform="matrix(.26457032 0 0 .26457032 -84.662119 -16.006504)"/></svg>

<?xml version="1.0" encoding="UTF-8" standalone="no"?>
<svg
   xmlns:dc="http://purl.org/dc/elements/1.1/"
   xmlns:cc="http://creativecommons.org/ns#"
   xmlns:rdf="http://www.w3.org/1999/02/22-rdf-syntax-ns#"
   xmlns:svg="http://www.w3.org/2000/svg"
   xmlns="http://www.w3.org/2000/svg"
   xmlns:xlink="http://www.w3.org/1999/xlink"
   xmlns:sodipodi="http://sodipodi.sourceforge.net/DTD/sodipodi-0.dtd"
   xmlns:inkscape="http://www.inkscape.org/namespaces/inkscape"
   width="48"
   height="48"
   version="1.1"
   viewBox="0 0 12.699375 12.699376"
   id="svg39"
   sodipodi:docname="extension.svg"
   inkscape:version="0.92.4 (5da689c313, 2019-01-14)">
  <metadata
     id="metadata43">
    <rdf:RDF>
      <cc:Work
         rdf:about="">
        <dc:format>image/svg+xml</dc:format>
        <dc:type
           rdf:resource="http://purl.org/dc/dcmitype/StillImage" />
        <dc:title></dc:title>
      </cc:Work>
    </rdf:RDF>
  </metadata>
  <sodipodi:namedview
     pagecolor="#ffffff"
     bordercolor="#666666"
     borderopacity="1"
     objecttolerance="10"
     gridtolerance="10"
     guidetolerance="10"
     inkscape:pageopacity="0"
     inkscape:pageshadow="2"
     inkscape:window-width="1920"
     inkscape:window-height="1016"
     id="namedview41"
     showgrid="false"
     inkscape:zoom="17.851067"
     inkscape:cx="24.000724"
     inkscape:cy="23.999997"
     inkscape:window-x="0"
     inkscape:window-y="27"
     inkscape:window-maximized="1"
     inkscape:current-layer="svg39" />
  <defs
     id="defs17">
    <linearGradient
       id="linearGradient4226"
       x1="529.65503"
       x2="-35.310001"
       y1="401.58401"
       y2="119.093"
       gradientTransform="matrix(0,-0.11988932,-0.11988589,0,67.016455,292.5483)"
       gradientUnits="userSpaceOnUse">
      <stop
         style="stop-color:#da1636"
         offset="0"
         id="stop2" />
      <stop
         style="stop-color:#f22c42"
         offset="1"
         id="stop4" />
    </linearGradient>
    <linearGradient
       id="linearGradient4358"
       x1="88"
       x2="488"
       y1="88"
       y2="488"
       gradientUnits="userSpaceOnUse">
      <stop
         style="stop-color:#000000;stop-opacity:.58823532"
         offset="0"
         id="stop7" />
      <stop
         style="stop-color:#000000;stop-opacity:0"
         offset=".88"
         id="stop9" />
      <stop
         style="stop-color:#000000"
         offset="1"
         id="stop11" />
    </linearGradient>
    <filter
       id="filter4346"
       width="1.026"
       height="1.022"
       x="-0.0099999998"
       y="-0.0099999998"
       style="color-interpolation-filters:sRGB">
      <feGaussianBlur
         stdDeviation="2.12"
         id="feGaussianBlur14" />
    </filter>
    <clipPath
       clipPathUnits="userSpaceOnUse"
       id="clipPath994">
      <path
         style="color:#000000;display:inline;overflow:visible;visibility:visible;fill:#cdcdcd;fill-opacity:1;fill-rule:nonzero;stroke:none;stroke-width:2;stroke-miterlimit:4;stroke-dasharray:none;stroke-opacity:1;marker:none;enable-background:accumulate"
         d="m 335.73108,62 c -8.82418,0 -9.77365,0.90635 -9.7304,9.74838 V 84 96.25162 c -0.0433,8.84203 0.90622,9.74838 9.7304,9.74838 h 16.53919 c 8.82418,0 9.7304,-0.90625 9.7304,-9.74838 V 84 71.74838 C 362.00067,62.90625 361.09445,62 352.27027,62 Z"
         id="path996"
         inkscape:connector-curvature="0"
         sodipodi:nodetypes="scccssscsss" />
    </clipPath>
    <clipPath
       clipPathUnits="userSpaceOnUse"
       id="clipPath994-7">
      <path
         style="color:#000000;display:inline;overflow:visible;visibility:visible;fill:#cdcdcd;fill-opacity:1;fill-rule:nonzero;stroke:none;stroke-width:2;stroke-miterlimit:4;stroke-dasharray:none;stroke-opacity:1;marker:none;enable-background:accumulate"
         d="m 335.73108,62 c -8.82418,0 -9.77365,0.90635 -9.7304,9.74838 V 84 96.25162 c -0.0433,8.84203 0.90622,9.74838 9.7304,9.74838 h 16.53919 c 8.82418,0 9.7304,-0.90625 9.7304,-9.74838 V 84 71.74838 C 362.00067,62.90625 361.09445,62 352.27027,62 Z"
         id="path996-0"
         inkscape:connector-curvature="0"
         sodipodi:nodetypes="scccssscsss" />
    </clipPath>
    <clipPath
       clipPathUnits="userSpaceOnUse"
       id="clipPath994-9">
      <path
         style="color:#000000;display:inline;overflow:visible;visibility:visible;fill:#cdcdcd;fill-opacity:1;fill-rule:nonzero;stroke:none;stroke-width:2;stroke-miterlimit:4;stroke-dasharray:none;stroke-opacity:1;marker:none;enable-background:accumulate"
         d="m 335.73108,62 c -8.82418,0 -9.77365,0.90635 -9.7304,9.74838 V 84 96.25162 c -0.0433,8.84203 0.90622,9.74838 9.7304,9.74838 h 16.53919 c 8.82418,0 9.7304,-0.90625 9.7304,-9.74838 V 84 71.74838 C 362.00067,62.90625 361.09445,62 352.27027,62 Z"
         id="path996-2"
         inkscape:connector-curvature="0"
         sodipodi:nodetypes="scccssscsss" />
    </clipPath>
    <linearGradient
       inkscape:collect="always"
       xlink:href="#linearGradient927"
       id="linearGradient1004"
       x1="344"
       y1="62"
       x2="344"
       y2="106"
       gradientUnits="userSpaceOnUse" />
    <linearGradient
       inkscape:collect="always"
       id="linearGradient927">
      <stop
         style="stop-color:#ffffff;stop-opacity:1;"
         offset="0"
         id="stop923" />
      <stop
         id="stop933"
         offset="0.125"
         style="stop-color:#ffffff;stop-opacity:0.09803922" />
      <stop
         id="stop931"
         offset="0.92500001"
         style="stop-color:#ffffff;stop-opacity:0.09803922" />
      <stop
         style="stop-color:#ffffff;stop-opacity:0.49803922"
         offset="1"
         id="stop925" />
    </linearGradient>
    <clipPath
       clipPathUnits="userSpaceOnUse"
       id="clipPath994-0">
      <path
         style="color:#000000;display:inline;overflow:visible;visibility:visible;fill:#cdcdcd;fill-opacity:1;fill-rule:nonzero;stroke:none;stroke-width:2;stroke-miterlimit:4;stroke-dasharray:none;stroke-opacity:1;marker:none;enable-background:accumulate"
         d="m 335.73108,62 c -8.82418,0 -9.77365,0.90635 -9.7304,9.74838 V 84 96.25162 c -0.0433,8.84203 0.90622,9.74838 9.7304,9.74838 h 16.53919 c 8.82418,0 9.7304,-0.90625 9.7304,-9.74838 V 84 71.74838 C 362.00067,62.90625 361.09445,62 352.27027,62 Z"
         id="path996-23"
         inkscape:connector-curvature="0"
         sodipodi:nodetypes="scccssscsss" />
    </clipPath>
    <linearGradient
       inkscape:collect="always"
       xlink:href="#linearGradient4338"
       id="linearGradient1024"
       gradientUnits="userSpaceOnUse"
       gradientTransform="matrix(0,-0.02997086,0.02997,0,-3.0393317,13.567585)"
       x1="459.03448"
       y1="419.23337"
       x2="35.310345"
       y2="207.36522" />
    <linearGradient
       inkscape:collect="always"
       id="linearGradient4338">
      <stop
         style="stop-color:#f2f2f2;stop-opacity:1"
         offset="0"
         id="stop4340" />
      <stop
         style="stop-color:#f9f9f9;stop-opacity:1"
         offset="1"
         id="stop4342" />
    </linearGradient>
  </defs>
  <path
     style="color:#000000;font-style:normal;font-variant:normal;font-weight:normal;font-stretch:normal;font-size:medium;line-height:normal;font-family:sans-serif;font-variant-ligatures:normal;font-variant-position:normal;font-variant-caps:normal;font-variant-numeric:normal;font-variant-alternates:normal;font-feature-settings:normal;text-indent:0;text-align:start;text-decoration:none;text-decoration-line:none;text-decoration-style:solid;text-decoration-color:#000000;letter-spacing:normal;word-spacing:normal;text-transform:none;writing-mode:lr-tb;direction:ltr;text-orientation:mixed;dominant-baseline:auto;baseline-shift:baseline;text-anchor:start;white-space:normal;shape-padding:0;clip-rule:nonzero;display:inline;overflow:visible;visibility:visible;opacity:0.1;isolation:auto;mix-blend-mode:normal;color-interpolation:sRGB;color-interpolation-filters:linearRGB;solid-color:#000000;solid-opacity:1;vector-effect:none;fill:#000000;fill-opacity:1;fill-rule:nonzero;stroke:none;stroke-width:0.52914065;stroke-linecap:butt;stroke-linejoin:miter;stroke-miterlimit:4;stroke-dasharray:none;stroke-dashoffset:0;stroke-opacity:1;marker:none;color-rendering:auto;image-rendering:auto;shape-rendering:auto;text-rendering:auto;enable-background:accumulate"
     d="m 4.1621983,0.39685638 c -0.5881821,0 -1.0513178,0.0135407 -1.4323996,0.0775109 C 2.3487143,0.53833618 2.0368758,0.65832278 1.8084511,0.88620808 1.580029,1.1140935 1.459467,1.4257915 1.3960944,1.8070368 1.3327219,2.1882824 1.3203506,2.6524292 1.3232344,3.2420207 v 3.239953 3.2415032 c -0.00286,0.5886861 0.00955,1.0525971 0.07286,1.4334331 0.063373,0.381246 0.1839346,0.692944 0.4123567,0.920829 0.2284247,0.227885 0.5402632,0.347873 0.9213476,0.411841 0.3810845,0.06397 0.8442175,0.07751 1.4323996,0.07751 h 4.3757445 c 0.5881822,0 1.0510744,-0.01352 1.4313676,-0.07751 0.3802936,-0.064 0.6911796,-0.18439 0.9187596,-0.412357 0.227584,-0.227967 0.347434,-0.539443 0.411325,-0.920313 0.06389,-0.380867 0.07751,-0.844073 0.07751,-1.4334331 V 6.4819737 3.2404706 c 0,-0.5893606 -0.01362,-1.0525645 -0.07751,-1.4334338 C 11.235504,1.4261677 11.115654,1.1146925 10.88807,0.88672478 10.66049,0.65875718 10.349604,0.53836398 9.9693104,0.47436729 9.5890172,0.41037037 9.126125,0.39685638 8.5379428,0.39685638 Z"
     id="path1020"
     inkscape:connector-curvature="0"
     sodipodi:nodetypes="sccsccccccsscccscsccsss" />
  <path
     style="color:#000000;display:inline;overflow:visible;visibility:visible;opacity:0.2;fill:none;fill-opacity:1;fill-rule:nonzero;stroke:#000000;stroke-width:0.52914065;stroke-miterlimit:4;stroke-dasharray:none;stroke-opacity:1;marker:none;enable-background:accumulate"
     d="m 4.1623597,0.39685638 c -2.3346161,0 -2.5858177,0.2397933 -2.574375,2.57913202 v 3.241415 3.2414151 c -0.011456,2.3393385 0.2397589,2.5791325 2.574375,2.5791325 h 4.3757789 c 2.3346154,0 2.5743744,-0.239767 2.5743744,-2.5791325 V 6.2174034 2.9759884 c 0,-2.33936512 -0.239759,-2.57913202 -2.5743744,-2.57913202 z"
     id="path958"
     inkscape:connector-curvature="0"
     sodipodi:nodetypes="scccssscsss" />
  <path
     style="color:#000000;display:inline;overflow:visible;visibility:visible;fill:url(#linearGradient1024);fill-opacity:1;fill-rule:nonzero;stroke:none;stroke-width:0.26457033;marker:none;enable-background:accumulate"
     d="m 4.162537,0.33906999 c -2.3346162,0 -2.5858177,0.23979329 -2.5743751,2.57913201 V 6.159617 9.4010321 C 1.576706,11.74037 1.8279208,11.980163 4.162537,11.980163 h 4.3757788 c 2.3346162,0 2.5743742,-0.239767 2.5743742,-2.5791309 V 6.159617 2.918202 c 0,-2.33936512 -0.239758,-2.57913201 -2.5743742,-2.57913201 z"
     id="path964"
     inkscape:connector-curvature="0"
     sodipodi:nodetypes="scccssscsss" />
  <path
     sodipodi:nodetypes="cssssccccccc"
     id="path968"
     d="m 5.8209299,5.9528323 v 1.7197068 c 0,0.073286 0.058999,0.1322852 0.1322852,0.1322852 h 0.793711 c 0.073286,0 0.1322851,-0.058999 0.1322851,-0.1322852 V 5.9528323 Z m 0.2645703,1.058281 H 6.6146409 V 7.540254 H 6.0855002 Z"
     style="color:#000000;display:inline;overflow:visible;visibility:visible;opacity:1;fill:#888888;fill-opacity:1;fill-rule:nonzero;stroke:none;stroke-width:3.96855474;stroke-linecap:butt;stroke-linejoin:miter;stroke-miterlimit:4;stroke-dasharray:none;stroke-dashoffset:0;stroke-opacity:1;marker:none;enable-background:accumulate"
     inkscape:connector-curvature="0" />
  <path
     sodipodi:nodetypes="cccccccccccccccccccccccccccccccccccccccccccccccccc"
     inkscape:connector-curvature="0"
     style="color:#000000;display:inline;overflow:visible;visibility:visible;opacity:1;fill:#888888;fill-opacity:1;fill-rule:nonzero;stroke:none;stroke-width:3.96855474;stroke-linecap:butt;stroke-linejoin:miter;stroke-miterlimit:4;stroke-dasharray:none;stroke-dashoffset:0;stroke-opacity:1;marker:none;enable-background:accumulate"
     d="M 6.3500679,0.39685638 H 5.8209273 v 0.5291407 h 0.5291406 z m 0,0.5291407 V 1.4551376 H 6.8792086 V 0.92599708 Z m 0,0.52914052 H 5.8209273 V 1.984278 h 0.5291406 z m 0,0.5291404 V 2.5134186 H 6.8792086 V 1.984278 Z m 0,0.5291406 H 5.8209273 v 0.5291407 h 0.5291406 z m 0,0.5291407 V 3.5716997 H 6.8792086 V 3.0425593 Z m 0,0.5291404 H 5.8209273 v 0.5291406 h 0.5291406 z m 0,0.5291406 V 4.629981 H 6.8792086 V 4.1008403 Z m 0,0.5291407 H 5.8209273 v 0.5291403 h 0.5291406 z m 0,0.5291403 V 5.688262 H 6.8792086 V 5.1591213 Z"
     id="path970" />
  <path
     style="color:#000000;display:inline;overflow:visible;visibility:visible;opacity:0.2;fill:#ffffff;fill-opacity:1;fill-rule:nonzero;stroke:none;stroke-width:0.26457033;marker:none;enable-background:accumulate"
     d="m 1.5878047,6.2174034 v 3.2415032 c -0.011456,2.3393384 0.2397775,2.5790444 2.5743936,2.5790444 h 4.3757445 c 2.3346152,0 2.5743932,-0.23968 2.5743932,-2.5790444 V 6.2174034 Z"
     id="path1006"
     inkscape:connector-curvature="0" />
  <path
     style="color:#000000;display:inline;overflow:visible;visibility:visible;opacity:0.1;fill:#ffffff;fill-opacity:1;fill-rule:nonzero;stroke:none;stroke-width:0.26457033;marker:none;enable-background:accumulate"
     d="M 6.3500706,0.39685638 V 12.037951 h 2.1878722 c 2.3346152,0 2.5743932,-0.23968 2.5743932,-2.5790444 V 6.2174034 2.9759003 c 0,-2.33936512 -0.239778,-2.57904392 -2.5743932,-2.57904392 z"
     id="path1013"
     inkscape:connector-curvature="0" />
  <path
     transform="matrix(0.26457032,0,0,0.26457032,-84.662119,-16.006504)"
     sodipodi:nodetypes="scccssscsss"
     inkscape:connector-curvature="0"
     id="path990"
     d="m 335.73108,62 c -8.82418,0 -9.77365,0.90635 -9.7304,9.74838 V 84 96.25162 c -0.0433,8.84203 0.90622,9.74838 9.7304,9.74838 h 16.53919 c 8.82418,0 9.7304,-0.90625 9.7304,-9.74838 V 84 71.74838 C 362.00067,62.90625 361.09445,62 352.27027,62 Z"
     style="color:#000000;display:inline;overflow:visible;visibility:visible;opacity:0.4;fill:none;fill-opacity:1;fill-rule:nonzero;stroke:url(#linearGradient1004);stroke-width:2;stroke-miterlimit:4;stroke-dasharray:none;stroke-opacity:1;marker:none;enable-background:accumulate"
     clip-path="url(#clipPath994-0)" />
</svg>
